X: 12361
T: False Proof, The
R: jig
M: 6/8
K: Amajor
|:FAc cBc|cBA G2c|BAG F2F|EFA GEC|
DFA cce|cBA G2c|BAG F2E|FGE F3:|
|:zAG FGE|DCB, C2B,|B,A,B, D2B,|B,CD AGE:|
FAG FFE|DCB, C2B,|B,CD B2A|GFE F3:|
|:FAF cFd|Fed cBA|BBA G2c|BAB BAF|
FEF cFd|Fec f z f|fed c/d/ed|1 cBA BGE:|2 cBA BBA||

